img/clam-discount.svg

<svg fill="none" height="143" viewBox="0 0 143 143" width="143" xmlns="http://www.w3.org/2000/svg"><path d="m83.1859 10.4356.3984.3125.4877-.1362 14.3035-3.99518 7.2895 12.93908.248.4412.503.0608 14.744 1.7827 1.782 14.7436.061.5027.441.2485 12.939 7.2892-3.995 14.3035-.136.4877.312.3984 9.165 11.6859-9.165 11.6859-.312.3984.136.4877 3.995 14.3035-12.939 7.2895-.441.248-.061.503-1.782 14.744-14.744 1.782-.503.061-.248.441-7.2895 12.939-14.3035-3.995-.4877-.136-.3984.312-11.6859 9.165-11.6859-9.165-.3984-.312-.4877.136-14.3035 3.995-7.2892-12.939-.2485-.441-.5027-.061-14.7436-1.782-1.7827-14.744-.0608-.503-.4412-.248-12.93908-7.2895 3.99518-14.3035.1362-.4877-.3125-.3984-9.16475-11.6859 9.16475-11.6859.3125-.3984-.1362-.4877-3.99517-14.3035 12.93907-7.2892.4412-.2485.0608-.5027 1.7827-14.7436 14.7436-1.7827.5027-.0608.2485-.4412 7.2892-12.93907 14.3035 3.99517.4877.1362.3984-.3125 11.6859-9.16475z" fill="#ffb82e" stroke="#000" stroke-width="2"/><g fill="#000"><path d="m45.207 53.2256v26.7744h-5.6035v-21.9873h-2.5976v-4.7871zm16.3653 27.4609c-3.3646 0-5.9128-1.1937-7.6446-3.581-1.7317-2.3998-2.5976-5.9252-2.5976-10.5762 0-4.5892.8659-8.0651 2.5976-10.4277 1.7318-2.375 4.28-3.5625 7.6446-3.5625 3.3274 0 5.8509 1.1875 7.5703 3.5625 1.7194 2.3626 2.5791 5.8385 2.5791 10.4277 0 4.651-.8597 8.1764-2.5791 10.5762-1.7194 2.3873-4.2429 3.581-7.5703 3.581zm0-4.7129c1.4349 0 2.5358-.7916 3.3027-2.375.7669-1.5957 1.1813-3.9521 1.2432-7.0693 0-3.0553-.3835-5.3623-1.1504-6.9209-.767-1.571-1.8988-2.3564-3.3955-2.3564-1.472 0-2.6039.7854-3.3955 2.3564-.7793 1.5586-1.1937 3.8656-1.2432 6.9209 0 3.1172.3896 5.4736 1.1689 7.0693.7917 1.5834 1.9483 2.375 3.4698 2.375zm20.707-10.205c-1.3236 0-2.474-.2598-3.4512-.7793-.9648-.5196-1.707-1.2618-2.2265-2.2266-.5196-.9772-.7793-2.1276-.7793-3.4512 0-1.3235.2597-2.4677.7793-3.4326.5195-.9772 1.2617-1.7256 2.2265-2.2451.9772-.5195 2.1276-.7793 3.4512-.7793s2.4678.2598 3.4326.7793c.9772.5195 1.7256 1.2679 2.2451 2.2451.5196.9649.7793 2.1091.7793 3.4326 0 1.3236-.2597 2.474-.7793 3.4512-.5195.9648-1.2679 1.707-2.2451 2.2266-.9648.5195-2.109.7793-3.4326.7793zm2.876 14.2314h-5.3067l17.9053-26.7744h5.3071zm-2.876-17.6826c.6432 0 1.1504-.266 1.5215-.7979s.5566-1.2679.5566-2.208-.1855-1.6761-.5566-2.208-.8783-.7978-1.5215-.7978-1.1504.2659-1.5215.7978-.5566 1.2679-.5566 2.208.1855 1.6761.5566 2.208.8783.7979 1.5215.7979zm18.2397 17.9424c-1.324 0-2.4744-.2598-3.4516-.7793-.9649-.5196-1.707-1.2617-2.2266-2.2266-.5195-.9772-.7793-2.1276-.7793-3.4512 0-1.3235.2598-2.4677.7793-3.4326.5196-.9772 1.2617-1.7256 2.2266-2.2451.9772-.5195 2.1276-.7793 3.4516-.7793 1.323 0 2.467.2598 3.432.7793.977.5195 1.726 1.2679 2.245 2.2451.52.9649.78 2.1091.78 3.4326 0 1.3236-.26 2.474-.78 3.4512-.519.9649-1.268 1.707-2.245 2.2266-.965.5195-2.109.7793-3.432.7793zm0-3.4512c.643 0 1.15-.266 1.521-.7979s.557-1.2679.557-2.208-.186-1.6761-.557-2.208-.878-.7978-1.521-.7978c-.6437 0-1.1508.2659-1.5219.7978s-.5567 1.2679-.5567 2.208.1856 1.6761.5567 2.208.8782.7979 1.5219.7979zm-50.2836 35.8784c-2.7214 0-5.1273-.588-7.2178-1.763-2.0781-1.175-3.6924-2.827-4.8428-4.954-1.138-2.128-1.707-4.589-1.707-7.385 0-2.7832.569-5.2325 1.707-7.3477 1.1504-2.1276 2.7647-3.7728 4.8428-4.9355 2.0905-1.1752 4.4964-1.7627 7.2178-1.7627 2.7089 0 5.0963.5875 7.1621 1.7627 2.0781 1.1627 3.6862 2.8079 4.8242 4.9355 1.1504 2.1152 1.7256 4.5645 1.7256 7.3477 0 2.796-.569 5.257-1.7071 7.385-1.138 2.127-2.7461 3.779-4.8242 4.954s-4.4717 1.763-7.1806 1.763zm0-4.788c1.608 0 3.0244-.383 4.249-1.15 1.2246-.779 2.1709-1.874 2.8388-3.284.6804-1.41 1.0206-3.037 1.0206-4.88 0-1.8308-.3402-3.445-1.0206-4.8428-.6679-1.3978-1.6142-2.4802-2.8388-3.2471-1.2246-.7793-2.641-1.1689-4.249-1.1689-1.6205 0-3.0492.3896-4.2862 1.1689-1.2246.7669-2.1771 1.8493-2.8574 3.2471s-1.0205 3.012-1.0205 4.8428c0 1.843.3402 3.47 1.0205 4.88s1.6328 2.505 2.8574 3.284c1.237.767 2.6657 1.15 4.2862 1.15zm23.416 4.101h-5.6035v-26.7744h17.6826v4.7871h-12.0791v6.1602h10.9101v4.7871h-10.9101zm21.7832 0h-5.6035v-26.7744h17.6829v4.7871h-12.0794v6.1602h10.9104v4.7871h-10.9104z"/><path d="m36.0781 42h-1.7031v-11.2734h7.1953v1.4687h-5.4922v3.3516h5v1.4687h-5zm10.7735.1641c-.8177 0-1.5495-.1875-2.1954-.5625-.6458-.375-1.151-.8959-1.5156-1.5625-.3594-.6667-.539-1.4219-.539-2.2657 0-.8437.1796-1.5963.539-2.2578.3646-.6666.8698-1.1849 1.5156-1.5547.6459-.375 1.3777-.5625 2.1954-.5625s1.5468.1875 2.1875.5625c.6458.3698 1.1484.8881 1.5078 1.5547.3646.6615.5469 1.4141.5469 2.2578 0 .849-.1823 1.6068-.5469 2.2735-.3594.6614-.862 1.1797-1.5078 1.5547-.6407.375-1.3698.5625-2.1875.5625zm0-1.4375c.5 0 .9453-.125 1.3359-.375.3958-.2552.7031-.6068.9219-1.0547.2239-.4479.3359-.9558.3359-1.5235s-.112-1.0729-.3359-1.5156c-.2188-.4479-.5261-.7969-.9219-1.0469s-.8437-.375-1.3437-.375-.948.125-1.3438.375c-.3906.25-.6979.599-.9219 1.0469-.2187.4427-.3281.9479-.3281 1.5156s.1094 1.0756.3281 1.5235c.224.4479.5339.7995.9297 1.0547.3958.25.8438.375 1.3438.375zm9.8437 1.4375c-.8177 0-1.5495-.1875-2.1953-.5625s-1.151-.8959-1.5156-1.5625c-.3594-.6667-.5391-1.4219-.5391-2.2657 0-.8437.1797-1.5963.5391-2.2578.3646-.6666.8698-1.1849 1.5156-1.5547.6458-.375 1.3776-.5625 2.1953-.5625s1.5469.1875 2.1875.5625c.6458.3698 1.1484.8881 1.5078 1.5547.3646.6615.5469 1.4141.5469 2.2578 0 .849-.1823 1.6068-.5469 2.2735-.3594.6614-.862 1.1797-1.5078 1.5547-.6406.375-1.3698.5625-2.1875.5625zm0-1.4375c.5 0 .9453-.125 1.3359-.375.3959-.2552.7032-.6068.9219-1.0547.224-.4479.336-.9558.336-1.5235s-.112-1.0729-.336-1.5156c-.2187-.4479-.526-.7969-.9219-1.0469-.3958-.25-.8437-.375-1.3437-.375s-.9479.125-1.3437.375c-.3907.25-.698.599-.9219 1.0469-.2188.4427-.3281.9479-.3281 1.5156s.1093 1.0756.3281 1.5235c.2239.4479.5338.7995.9297 1.0547.3958.25.8437.375 1.3437.375zm12.0391-10.2422h1.6484v11.5156h-1.6484v-1.3047h-.0625c-.2709.4375-.6328.7917-1.086 1.0625-.4531.2656-.9948.3984-1.625.3984-.7031 0-1.3333-.177-1.8906-.5312s-.9948-.8516-1.3125-1.4922c-.3125-.6458-.4687-1.3802-.4687-2.2031 0-.8854.1588-1.6719.4765-2.3594s.7578-1.2213 1.3203-1.6015c.5677-.3803 1.2058-.5704 1.9141-.5704.5833 0 1.1068.1355 1.5703.4063.4688.2656.8412.638 1.1172 1.1172h.0469zm-2.461 10.4297c.4844 0 .9063-.1224 1.2657-.3672.3645-.25.6458-.5677.8437-.9531.2031-.3907.3203-.7943.3516-1.211v-.9453c-.0313-.4948-.1563-.9505-.375-1.3672-.2188-.4167-.5052-.7448-.8594-.9844-.3542-.2448-.7448-.3671-1.1719-.3671-.4323 0-.8307.138-1.1953.414-.3646.2708-.6562.6511-.875 1.1406-.2135.4844-.3203 1.0365-.3203 1.6563 0 .5781.1042 1.0937.3125 1.5469.2135.4531.4974.8073.8516 1.0625.3593.25.75.375 1.1718.375zm16.1485-.1563c.6666 0 1.289-.1797 1.8672-.539.5833-.3594 1.0937-.9037 1.5312-1.6329l1.0625.9844c-.4792.9011-1.0937 1.5729-1.8437 2.0156-.75.4375-1.6224.6563-2.6172.6563-1.0781 0-2.0391-.2448-2.8828-.7344-.8386-.4948-1.4974-1.1875-1.9766-2.0781-.474-.8906-.7187-1.9115-.7344-3.0625.0157-1.1511.2604-2.1719.7344-3.0625.4792-.8958 1.138-1.5886 1.9766-2.0781.8437-.4948 1.8047-.7422 2.8828-.7422.9896 0 1.8593.2213 2.6093.664.7553.4427 1.3724 1.1172 1.8516 2.0235l-1.0625.9765c-.4375-.7291-.9453-1.2734-1.5234-1.6328s-1.2031-.539-1.875-.539c-.7396 0-1.4011.1849-1.9844.5546-.5833.3698-1.0443.8881-1.3828 1.5547-.3333.6615-.5052 1.4219-.5156 2.2813.0104.8594.1823 1.6224.5156 2.289.3333.6615.7917 1.1771 1.375 1.5469s1.2474.5547 1.9922.5547zm10.0234 1.4063c-.8177 0-1.5495-.1875-2.1953-.5625s-1.151-.8959-1.5156-1.5625c-.3594-.6667-.5391-1.4219-.5391-2.2657 0-.8437.1797-1.5963.5391-2.2578.3646-.6666.8698-1.1849 1.5156-1.5547.6458-.375 1.3776-.5625 2.1953-.5625s1.5469.1875 2.1875.5625c.6458.3698 1.1484.8881 1.5078 1.5547.3646.6615.5469 1.4141.5469 2.2578 0 .849-.1823 1.6068-.5469 2.2735-.3594.6614-.862 1.1797-1.5078 1.5547-.6406.375-1.3698.5625-2.1875.5625zm0-1.4375c.5 0 .9453-.125 1.3359-.375.3959-.2552.7032-.6068.9219-1.0547.224-.4479.336-.9558.336-1.5235s-.112-1.0729-.336-1.5156c-.2187-.4479-.526-.7969-.9219-1.0469-.3958-.25-.8437-.375-1.3437-.375s-.9479.125-1.3437.375c-.3907.25-.698.599-.9219 1.0469-.2188.4427-.3281.9479-.3281 1.5156s.1093 1.0756.3281 1.5235c.2239.4479.5338.7995.9297 1.0547.3958.25.8437.375 1.3437.375zm7.6717-8.7657h-1.7498v-1.75h1.7498zm-.047 10.0391h-1.6481v-8.4375h1.6481zm6.446-8.6016c1.026 0 1.807.2917 2.343.875.542.5834.813 1.4245.813 2.5235v5.2031h-1.656v-4.8594c0-.7708-.172-1.3515-.516-1.7422-.339-.3906-.839-.5859-1.5-.5859-.359 0-.685.0964-.977.2891-.286.1927-.518.4583-.695.7968-.177.3334-.279.7084-.305 1.125v4.9766h-1.656v-8.4375h1.656v1.3594h.071c.208-.4844.528-.8594.961-1.125.437-.2657.924-.3985 1.461-.3985z"/></g></svg>

<svg width="143" height="143" viewBox="0 0 143 143" fill="none" xmlns="http://www.w3.org/2000/svg">
<path d="M83.1859 10.4356L83.5843 10.7481L84.072 10.6119L98.3755 6.61672L105.665 19.5558L105.913 19.997L106.416 20.0578L121.16 21.8405L122.942 36.5841L123.003 37.0868L123.444 37.3353L136.383 44.6245L132.388 58.928L132.252 59.4157L132.564 59.8141L141.729 71.5L132.564 83.1859L132.252 83.5843L132.388 84.072L136.383 98.3755L123.444 105.665L123.003 105.913L122.942 106.416L121.16 121.16L106.416 122.942L105.913 123.003L105.665 123.444L98.3755 136.383L84.072 132.388L83.5843 132.252L83.1859 132.564L71.5 141.729L59.8141 132.564L59.4157 132.252L58.928 132.388L44.6245 136.383L37.3353 123.444L37.0868 123.003L36.5841 122.942L21.8405 121.16L20.0578 106.416L19.997 105.913L19.5558 105.665L6.61672 98.3755L10.6119 84.072L10.7481 83.5843L10.4356 83.1859L1.27085 71.5L10.4356 59.8141L10.7481 59.4157L10.6119 58.928L6.61673 44.6245L19.5558 37.3353L19.997 37.0868L20.0578 36.5841L21.8405 21.8405L36.5841 20.0578L37.0868 19.997L37.3353 19.5558L44.6245 6.61673L58.928 10.6119L59.4157 10.7481L59.8141 10.4356L71.5 1.27085L83.1859 10.4356Z" fill="#FFB82E" stroke="black" stroke-width="2"/>
<path d="M45.207 53.2256V80H39.6035V58.0127H37.0059V53.2256H45.207ZM61.5723 80.6865C58.2077 80.6865 55.6595 79.4928 53.9277 77.1055C52.196 74.7057 51.3301 71.1803 51.3301 66.5293C51.3301 61.9401 52.196 58.4642 53.9277 56.1016C55.6595 53.7266 58.2077 52.5391 61.5723 52.5391C64.8997 52.5391 67.4232 53.7266 69.1426 56.1016C70.862 58.4642 71.7217 61.9401 71.7217 66.5293C71.7217 71.1803 70.862 74.7057 69.1426 77.1055C67.4232 79.4928 64.8997 80.6865 61.5723 80.6865ZM61.5723 75.9736C63.0072 75.9736 64.1081 75.182 64.875 73.5986C65.6419 72.0029 66.0563 69.6465 66.1182 66.5293C66.1182 63.474 65.7347 61.167 64.9678 59.6084C64.2008 58.0374 63.069 57.252 61.5723 57.252C60.1003 57.252 58.9684 58.0374 58.1768 59.6084C57.3975 61.167 56.9831 63.474 56.9336 66.5293C56.9336 69.6465 57.3232 72.0029 58.1025 73.5986C58.8942 75.182 60.0508 75.9736 61.5723 75.9736ZM82.2793 65.7686C80.9557 65.7686 79.8053 65.5088 78.8281 64.9893C77.8633 64.4697 77.1211 63.7275 76.6016 62.7627C76.082 61.7855 75.8223 60.6351 75.8223 59.3115C75.8223 57.988 76.082 56.8438 76.6016 55.8789C77.1211 54.9017 77.8633 54.1533 78.8281 53.6338C79.8053 53.1143 80.9557 52.8545 82.2793 52.8545C83.6029 52.8545 84.7471 53.1143 85.7119 53.6338C86.6891 54.1533 87.4375 54.9017 87.957 55.8789C88.4766 56.8438 88.7363 57.988 88.7363 59.3115C88.7363 60.6351 88.4766 61.7855 87.957 62.7627C87.4375 63.7275 86.6891 64.4697 85.7119 64.9893C84.7471 65.5088 83.6029 65.7686 82.2793 65.7686ZM85.1553 80H79.8486L97.7539 53.2256H103.061L85.1553 80ZM82.2793 62.3174C82.9225 62.3174 83.4297 62.0514 83.8008 61.5195C84.1719 60.9876 84.3574 60.2516 84.3574 59.3115C84.3574 58.3714 84.1719 57.6354 83.8008 57.1035C83.4297 56.5716 82.9225 56.3057 82.2793 56.3057C81.6361 56.3057 81.1289 56.5716 80.7578 57.1035C80.3867 57.6354 80.2012 58.3714 80.2012 59.3115C80.2012 60.2516 80.3867 60.9876 80.7578 61.5195C81.1289 62.0514 81.6361 62.3174 82.2793 62.3174ZM100.519 80.2598C99.195 80.2598 98.0446 80 97.0674 79.4805C96.1025 78.9609 95.3604 78.2188 94.8408 77.2539C94.3213 76.2767 94.0615 75.1263 94.0615 73.8027C94.0615 72.4792 94.3213 71.335 94.8408 70.3701C95.3604 69.3929 96.1025 68.6445 97.0674 68.125C98.0446 67.6055 99.195 67.3457 100.519 67.3457C101.842 67.3457 102.986 67.6055 103.951 68.125C104.928 68.6445 105.677 69.3929 106.196 70.3701C106.716 71.335 106.976 72.4792 106.976 73.8027C106.976 75.1263 106.716 76.2767 106.196 77.2539C105.677 78.2188 104.928 78.9609 103.951 79.4805C102.986 80 101.842 80.2598 100.519 80.2598ZM100.519 76.8086C101.162 76.8086 101.669 76.5426 102.04 76.0107C102.411 75.4788 102.597 74.7428 102.597 73.8027C102.597 72.8626 102.411 72.1266 102.04 71.5947C101.669 71.0628 101.162 70.7969 100.519 70.7969C99.8753 70.7969 99.3682 71.0628 98.9971 71.5947C98.626 72.1266 98.4404 72.8626 98.4404 73.8027C98.4404 74.7428 98.626 75.4788 98.9971 76.0107C99.3682 76.5426 99.8753 76.8086 100.519 76.8086ZM50.2354 112.687C47.514 112.687 45.1081 112.099 43.0176 110.924C40.9395 109.749 39.3252 108.097 38.1748 105.97C37.0368 103.842 36.4678 101.381 36.4678 98.585C36.4678 95.8018 37.0368 93.3525 38.1748 91.2373C39.3252 89.1097 40.9395 87.4645 43.0176 86.3018C45.1081 85.1266 47.514 84.5391 50.2354 84.5391C52.9443 84.5391 55.3317 85.1266 57.3975 86.3018C59.4756 87.4645 61.0837 89.1097 62.2217 91.2373C63.3721 93.3525 63.9473 95.8018 63.9473 98.585C63.9473 101.381 63.3783 103.842 62.2402 105.97C61.1022 108.097 59.4941 109.749 57.416 110.924C55.3379 112.099 52.9443 112.687 50.2354 112.687ZM50.2354 107.899C51.8434 107.899 53.2598 107.516 54.4844 106.749C55.709 105.97 56.6553 104.875 57.3232 103.465C58.0036 102.055 58.3438 100.428 58.3438 98.585C58.3438 96.7542 58.0036 95.14 57.3232 93.7422C56.6553 92.3444 55.709 91.262 54.4844 90.4951C53.2598 89.7158 51.8434 89.3262 50.2354 89.3262C48.6149 89.3262 47.1862 89.7158 45.9492 90.4951C44.7246 91.262 43.7721 92.3444 43.0918 93.7422C42.4115 95.14 42.0713 96.7542 42.0713 98.585C42.0713 100.428 42.4115 102.055 43.0918 103.465C43.7721 104.875 44.7246 105.97 45.9492 106.749C47.1862 107.516 48.6149 107.899 50.2354 107.899ZM73.6514 112H68.0479V85.2256H85.7305V90.0127H73.6514V96.1729H84.5615V100.96H73.6514V112ZM95.4346 112H89.8311V85.2256H107.514V90.0127H95.4346V96.1729H106.345V100.96H95.4346V112Z" fill="black"/>
<path d="M36.0781 42H34.375V30.7266H41.5703V32.1953H36.0781V35.5469H41.0781V37.0156H36.0781V42ZM46.8516 42.1641C46.0339 42.1641 45.3021 41.9766 44.6562 41.6016C44.0104 41.2266 43.5052 40.7057 43.1406 40.0391C42.7812 39.3724 42.6016 38.6172 42.6016 37.7734C42.6016 36.9297 42.7812 36.1771 43.1406 35.5156C43.5052 34.849 44.0104 34.3307 44.6562 33.9609C45.3021 33.5859 46.0339 33.3984 46.8516 33.3984C47.6693 33.3984 48.3984 33.5859 49.0391 33.9609C49.6849 34.3307 50.1875 34.849 50.5469 35.5156C50.9115 36.1771 51.0938 36.9297 51.0938 37.7734C51.0938 38.6224 50.9115 39.3802 50.5469 40.0469C50.1875 40.7083 49.6849 41.2266 49.0391 41.6016C48.3984 41.9766 47.6693 42.1641 46.8516 42.1641ZM46.8516 40.7266C47.3516 40.7266 47.7969 40.6016 48.1875 40.3516C48.5833 40.0964 48.8906 39.7448 49.1094 39.2969C49.3333 38.849 49.4453 38.3411 49.4453 37.7734C49.4453 37.2057 49.3333 36.7005 49.1094 36.2578C48.8906 35.8099 48.5833 35.4609 48.1875 35.2109C47.7917 34.9609 47.3438 34.8359 46.8438 34.8359C46.3438 34.8359 45.8958 34.9609 45.5 35.2109C45.1094 35.4609 44.8021 35.8099 44.5781 36.2578C44.3594 36.7005 44.25 37.2057 44.25 37.7734C44.25 38.3411 44.3594 38.849 44.5781 39.2969C44.8021 39.7448 45.112 40.0964 45.5078 40.3516C45.9036 40.6016 46.3516 40.7266 46.8516 40.7266ZM56.6953 42.1641C55.8776 42.1641 55.1458 41.9766 54.5 41.6016C53.8542 41.2266 53.349 40.7057 52.9844 40.0391C52.625 39.3724 52.4453 38.6172 52.4453 37.7734C52.4453 36.9297 52.625 36.1771 52.9844 35.5156C53.349 34.849 53.8542 34.3307 54.5 33.9609C55.1458 33.5859 55.8776 33.3984 56.6953 33.3984C57.513 33.3984 58.2422 33.5859 58.8828 33.9609C59.5286 34.3307 60.0312 34.849 60.3906 35.5156C60.7552 36.1771 60.9375 36.9297 60.9375 37.7734C60.9375 38.6224 60.7552 39.3802 60.3906 40.0469C60.0312 40.7083 59.5286 41.2266 58.8828 41.6016C58.2422 41.9766 57.513 42.1641 56.6953 42.1641ZM56.6953 40.7266C57.1953 40.7266 57.6406 40.6016 58.0312 40.3516C58.4271 40.0964 58.7344 39.7448 58.9531 39.2969C59.1771 38.849 59.2891 38.3411 59.2891 37.7734C59.2891 37.2057 59.1771 36.7005 58.9531 36.2578C58.7344 35.8099 58.4271 35.4609 58.0312 35.2109C57.6354 34.9609 57.1875 34.8359 56.6875 34.8359C56.1875 34.8359 55.7396 34.9609 55.3438 35.2109C54.9531 35.4609 54.6458 35.8099 54.4219 36.2578C54.2031 36.7005 54.0938 37.2057 54.0938 37.7734C54.0938 38.3411 54.2031 38.849 54.4219 39.2969C54.6458 39.7448 54.9557 40.0964 55.3516 40.3516C55.7474 40.6016 56.1953 40.7266 56.6953 40.7266ZM68.7344 30.4844H70.3828V42H68.7344V40.6953H68.6719C68.401 41.1328 68.0391 41.487 67.5859 41.7578C67.1328 42.0234 66.5911 42.1562 65.9609 42.1562C65.2578 42.1562 64.6276 41.9792 64.0703 41.625C63.513 41.2708 63.0755 40.7734 62.7578 40.1328C62.4453 39.487 62.2891 38.7526 62.2891 37.9297C62.2891 37.0443 62.4479 36.2578 62.7656 35.5703C63.0833 34.8828 63.5234 34.349 64.0859 33.9688C64.6536 33.5885 65.2917 33.3984 66 33.3984C66.5833 33.3984 67.1068 33.5339 67.5703 33.8047C68.0391 34.0703 68.4115 34.4427 68.6875 34.9219H68.7344V30.4844ZM66.2734 40.9141C66.7578 40.9141 67.1797 40.7917 67.5391 40.5469C67.9036 40.2969 68.1849 39.9792 68.3828 39.5938C68.5859 39.2031 68.7031 38.7995 68.7344 38.3828V37.4375C68.7031 36.9427 68.5781 36.487 68.3594 36.0703C68.1406 35.6536 67.8542 35.3255 67.5 35.0859C67.1458 34.8411 66.7552 34.7188 66.3281 34.7188C65.8958 34.7188 65.4974 34.8568 65.1328 35.1328C64.7682 35.4036 64.4766 35.7839 64.2578 36.2734C64.0443 36.7578 63.9375 37.3099 63.9375 37.9297C63.9375 38.5078 64.0417 39.0234 64.25 39.4766C64.4635 39.9297 64.7474 40.2839 65.1016 40.5391C65.4609 40.7891 65.8516 40.9141 66.2734 40.9141ZM82.4219 40.7578C83.0885 40.7578 83.7109 40.5781 84.2891 40.2188C84.8724 39.8594 85.3828 39.3151 85.8203 38.5859L86.8828 39.5703C86.4036 40.4714 85.7891 41.1432 85.0391 41.5859C84.2891 42.0234 83.4167 42.2422 82.4219 42.2422C81.3438 42.2422 80.3828 41.9974 79.5391 41.5078C78.7005 41.013 78.0417 40.3203 77.5625 39.4297C77.0885 38.5391 76.8438 37.5182 76.8281 36.3672C76.8438 35.2161 77.0885 34.1953 77.5625 33.3047C78.0417 32.4089 78.7005 31.7161 79.5391 31.2266C80.3828 30.7318 81.3438 30.4844 82.4219 30.4844C83.4115 30.4844 84.2812 30.7057 85.0312 31.1484C85.7865 31.5911 86.4036 32.2656 86.8828 33.1719L85.8203 34.1484C85.3828 33.4193 84.875 32.875 84.2969 32.5156C83.7188 32.1562 83.0938 31.9766 82.4219 31.9766C81.6823 31.9766 81.0208 32.1615 80.4375 32.5312C79.8542 32.901 79.3932 33.4193 79.0547 34.0859C78.7214 34.7474 78.5495 35.5078 78.5391 36.3672C78.5495 37.2266 78.7214 37.9896 79.0547 38.6562C79.388 39.3177 79.8464 39.8333 80.4297 40.2031C81.013 40.5729 81.6771 40.7578 82.4219 40.7578ZM92.4453 42.1641C91.6276 42.1641 90.8958 41.9766 90.25 41.6016C89.6042 41.2266 89.099 40.7057 88.7344 40.0391C88.375 39.3724 88.1953 38.6172 88.1953 37.7734C88.1953 36.9297 88.375 36.1771 88.7344 35.5156C89.099 34.849 89.6042 34.3307 90.25 33.9609C90.8958 33.5859 91.6276 33.3984 92.4453 33.3984C93.263 33.3984 93.9922 33.5859 94.6328 33.9609C95.2786 34.3307 95.7812 34.849 96.1406 35.5156C96.5052 36.1771 96.6875 36.9297 96.6875 37.7734C96.6875 38.6224 96.5052 39.3802 96.1406 40.0469C95.7812 40.7083 95.2786 41.2266 94.6328 41.6016C93.9922 41.9766 93.263 42.1641 92.4453 42.1641ZM92.4453 40.7266C92.9453 40.7266 93.3906 40.6016 93.7812 40.3516C94.1771 40.0964 94.4844 39.7448 94.7031 39.2969C94.9271 38.849 95.0391 38.3411 95.0391 37.7734C95.0391 37.2057 94.9271 36.7005 94.7031 36.2578C94.4844 35.8099 94.1771 35.4609 93.7812 35.2109C93.3854 34.9609 92.9375 34.8359 92.4375 34.8359C91.9375 34.8359 91.4896 34.9609 91.0938 35.2109C90.7031 35.4609 90.3958 35.8099 90.1719 36.2578C89.9531 36.7005 89.8438 37.2057 89.8438 37.7734C89.8438 38.3411 89.9531 38.849 90.1719 39.2969C90.3958 39.7448 90.7057 40.0964 91.1016 40.3516C91.4974 40.6016 91.9453 40.7266 92.4453 40.7266ZM100.117 31.9609H98.3672V30.2109H100.117V31.9609ZM100.07 42H98.4219V33.5625H100.07V42ZM106.516 33.3984C107.542 33.3984 108.323 33.6901 108.859 34.2734C109.401 34.8568 109.672 35.6979 109.672 36.7969V42H108.016V37.1406C108.016 36.3698 107.844 35.7891 107.5 35.3984C107.161 35.0078 106.661 34.8125 106 34.8125C105.641 34.8125 105.315 34.9089 105.023 35.1016C104.737 35.2943 104.505 35.5599 104.328 35.8984C104.151 36.2318 104.049 36.6068 104.023 37.0234V42H102.367V33.5625H104.023V34.9219H104.094C104.302 34.4375 104.622 34.0625 105.055 33.7969C105.492 33.5312 105.979 33.3984 106.516 33.3984Z" fill="black"/>
</svg>
